X: 011	% 1
T: Dixie
S: Viola Ruth "Pioneer Western Folk Tunes" 1948 p.1 #1
R: march
Z: 2019 John Chambers <jc:trillian.mit.edu>
M: C|
L: 1/8
K: G
V: 1 name=1
(dB) |:\
G2G2 (GABc) | d2d2 d2B2 | e2e2 e3d | e3d (efga) |\
b6 (gd) | g6 (dB) | d6 (AB) |[1 G6 (dB) :|[2 G6 MdMd |\
g2b2 a2g2 | e2 g4 e2 |
a6 d2 | a6 d2 |\
g2b2 a2g2 | e2f2 g3e | d2B2 g3B | B2 A4 B2 |\
G6 B2 | A6 e2 | d2 B2 g3b | a2 g4 B2 |\
G6 B2 | A6 e2 | d2B2 b3g | a2 g6 |]
